X:1
T:Title
%%score { 1 | 2 }
L:1/8
M:4/4
K:Ab
V:1 treble nm="Grand Piano"
V:2 bass 
V:1
 z4 z2[Q:1/4=100] [CE]2 | [CE]2 [CE]2 [DF]2 [FA]2 | [FA]3 [DF] [CE]2 [CE]2 | %3
 [CA]2 [EA]2 [Ec]2 [Ec]2 |[M:3/4] [EB]6 |[M:1/4] [DE]2 |[M:4/4] [CE]2 [CE]2 [DF]2 [FA]2 | %7
 [FA]3 [DF] [CE]2 [CA]2 | [Ec]2 [Ec]2 [EB]2 [DB]2 | [CA]6 z2 | [Ee]3 [Ed] [Ec]3 [FB] | %11
 [FA]2 [FA]2 E3 E | [CA]2 [EA]2 [Ec]2 [Ec]2 | B6 z2 | e3 d c3 [FB] | [FA]2 [FA]2 E3 E | %16
 [CA]2 [EA]2 [Ec]2 [DB]2 |[M:3/4] [CA]6 |] %18
V:2
 z4 z2 [A,,A,]2 | [A,,A,]2 [A,,A,]2 [D,A,]2 [D,A,]2 | [D,A,]3 [D,A,] [A,,A,]2 [A,,A,]2 | %3
 [A,,A,]2 [C,A,]2 [A,,A,]2 [A,,A,]2 |[M:3/4] [E,G,]6 |[M:1/4] [E,G,]2 | %6
[M:4/4] [A,,A,]2 [A,,A,]2 [D,A,]2 [D,A,]2 | [D,A,]3 [D,A,] [A,,A,]2 [A,,A,]2 | %8
 [A,,A,]2 [C,A,]2 [E,G,]2 [E,G,]2 | [A,,A,]6 z2 | [A,C]3 [A,B,] [A,,A,]3 [D,A,] | %11
 [D,A,]2 [D,A,]2 [A,C]3 [A,C] | [A,,A,]2 [C,A,]2 [A,,A,]2 [A,,A,]2 | [E,G,E]6 z2 | %14
 [A,CE]3 [A,B,E] [A,E]3 [D,A,] | [D,A,]2 [D,A,]2 [A,C]3 [A,C] | [A,,A,]2 [C,A,]2 [E,A,]2 [E,G,]2 | %17
[M:3/4] [A,,A,]6 |] %18

